X: 3195
T: HEY THE BONNIE BREAST KNOTS
Q: "Highland Schottische."
R: Schottische.
%R: shottish
B: James Kerr "Merry Melodies" v.3 p.23 #195
Z: 2016 John Chambers <jc:trillian.mit.edu>
M: C
L: 1/8
K: A
|:\
vA>vB (c<e) vd>ve (f<a) | e>cA>c Bz ez |\
A>B (c<e) d>e (f<a) | e>cB>e cz Az :|
|:\
A>BA>F E>c A2 | A>BA>F E>c A2 |\
c>BA>B c>ca>f |[1 ^d>Bc>d e2 E2 :|\
[2 (3^dcB (3AGF E2 e2 |]

%%sep 1 1 500
%%sep 1 1 500

